X:1
T:Title
L:1/8
Q:1/4=120
M:6/8
K:A
V:1 treble nm="Church Organ, Staff"
V:1
 A3 F3 | d3 B3 | e3 e3 | e3 .c3 | Acc BAF- | F2 F- F3/2 z/ E- | EAA GAB- | B2 B- B3/2 z/ A- | %8
w: By~C.~Darnton *||||||||
 AAc BAd- | d2 ^d- d3/2 z/ e- | ecc dBA- | A2 A- A/ z/ z A- | Add cBA- | ABA- A/ z/ FA- | %14
w: ||||||
 Add cBA- | ABA- A/ z/ FE- | EAA- A/ z/ ce- | e2 e- e/ z/ z c- | cdc dBA- | A2 A- A/ z/ z A- | %20
w: ||||||
 A2 F- F3/2 z/ d- | d2 B- B3/2 z/ e- | e2 e- e2 e- | e2 c- c/ z/ z z |] %24
w: ||||

